X: 13421
T: Floating Crowbar, The
R: reel
M: 4/4
K: Dmixolydian
|:AD ~D2 AD ~D2|AD ~D2 A2GF|EG~G2 AG~G2|E~G2F GABd|
AD ~D2 AD ~D2|AD ~D2 G2FG|~A3B cded|1 cAGE D2dB:|2 cAGE D2 FG||
|:Add^c d2 ^cd|eaag efge|~A3B AG FG|A3G EFGE|
Add^c d2cd|eaag efge|afge d2ed|1 cAGE ~D2 FG:|2 cAGE ~D2dB||

